X: 1
T: Adam And Eves
M: 6/8
L: 1/8
R: jig
K: Gmaj
|:A|B2d ded|BAB GAB|AGE DEG|AGE DEG|
B2d ded|BAB GAB|AGE DEG|AGF G2:|
|:A|BAB GAB|cBc ABc|B2G F2G|ABc d3|
cBB GAB|cec BdB|AGE DEG|AGF G2:|
